X:1
T:Title
%%score { 1 | 2 }
L:1/8
Q:1/4=100
M:6/8
K:F
V:1 treble nm="Grand Piano"
V:2 bass 
V:1
 A2 A A_A=A | c2 B .A3 | [EG]2 [EG] [EA]2 [EG] | F6 | A2 A A_A=A | c2 B .A3 | %6
w: H.~Millard * * * *||||||
 [B,EG]2 [B,EG] [CEA]2 [B,EG] | [A,F]6 | [EG]2 [EG] [GB][FA][EG] | A2 A .c3 | %10
w: ||||
 [EG]2 [EG] [GB][FA][EG] | A2 A .c3 | d2 d Bcd | c2 A .c3 | F2 F [EG]2 [EG] | F6 |] %16
w: ||||||
V:2
 [F,CF]2 [F,CF] [F,CF][F,=B,F][F,CF] | [F,A,F]2 [F,G,F] .[F,F]3 | [C,B,]2 [C,B,] [C,C]2 [C,B,] | %3
 [F,A,]6 | [F,CF]2 [F,CF] [F,CF][F,=B,F][F,CF] | [F,A,F]2 [F,G,F] .[F,F]3 | C,2 C, C,2 C, | F,6 | %8
 [C,C]2 [C,C] [C,C][C,C][C,C] | [F,CF]2 [F,CF] .[F,A,F]3 | [C,C]2 [C,C] [C,C][C,C][C,C] | %11
 [F,CF]2 [F,CF] .[F,A,F]3 | [B,DF]2 [B,DF] [B,DF][B,CF][B,F] | [F,A,F]2 [F,CF] .[F,A,F]3 | %14
 [C,A,C]2 [C,A,C] [C,B,]2 [C,B,] | [F,A,]6 |] %16

